X: 1
T: Shenandoah Falls
R: reel
S: The Portland Collection v.1 p.182
S: Fiddle Hell handout 20210414
Z: 2021 John Chambers <jc:trillian.mit.edu>
M: C|
L: 1/8
K: A
cd |\
"A"e2ef edcB | AB (3cBA "D"d4 | "A"c2cA (3BcB Ac | "E"BAGF E2cd |
"A"e2ef edcB | AB (3cBA "D"d4 | "A"cBAc "E"BAG2 | "A"A6 :|
|: G2 |\
"Bm"F4 B4 | F2AB- BAF2 | "A"A2cA BcAB | cABc- cBA2 |
"Bm"F4 B4 | F2AB- Bfed | "A"cdec "E"BAG2 | "A"A6 :|
